X:1595
T:the Edge of the White Rock
M:3/4
N:Carolan's Cup 
O:Ireland
R:Slow Air
Z:Richard Robinson 
%%TUNEURL: http://www.leeds.ac.uk/music/Info/RRTuneBk/gettune/00000c77.html
%%ID:00000c77
K:D
de|\
f3g fe | d2 f2 a2 | e2 gf ed | c3 A fe | \
d3c B2 | A2 F2 A2 | B4 ba | b3 a fe |
f3g fe | d2 f2 a2 | e2 gf ed | c3A fe | \
d3c B2 | A2 G2 A2 | B4 B/2c/2B/2A/2 | B4 ||
c2|\
d3e dc | d2 e2 f2 | a4 f2 | a4 f2 | \
e3f ed | e2 f2 a2 | b6 - | b4 fa |
b3a fe | d2 f2 a2 | e2 gf ed | c3A fe | \
d3c B2 | A2 F2 A2 | B6 - | B4 |]
